Newaita-dark/actions/16/address-book-new.svg

<?xml version="1.0" encoding="UTF-8"?>
<svg xmlns="http://www.w3.org/2000/svg" xmlns:xlink="http://www.w3.org/1999/xlink" width="16pt" height="16pt" viewBox="0 0 16 16" version="1.1">
<g id="surface1">
<path style=" stroke:none;fill-rule:nonzero;fill:rgb(25.882354%,64.705884%,96.078432%);fill-opacity:1;" d="M 6.148438 5.417969 L 11.382812 5.417969 C 11.671875 5.417969 11.90625 5.640625 11.90625 5.914062 C 11.90625 6.1875 11.671875 6.410156 11.382812 6.410156 L 6.148438 6.410156 C 5.855469 6.410156 5.621094 6.1875 5.621094 5.914062 C 5.621094 5.640625 5.855469 5.417969 6.148438 5.417969 Z M 6.148438 5.417969 "/>
<path style=" stroke:none;fill-rule:nonzero;fill:rgb(25.882354%,64.705884%,96.078432%);fill-opacity:1;" d="M 6.148438 8.0625 L 11.382812 8.0625 C 11.671875 8.0625 11.90625 8.285156 11.90625 8.558594 C 11.90625 8.832031 11.671875 9.054688 11.382812 9.054688 L 6.148438 9.054688 C 5.855469 9.054688 5.621094 8.832031 5.621094 8.558594 C 5.621094 8.285156 5.855469 8.0625 6.148438 8.0625 Z M 6.148438 8.0625 "/>
<path style=" stroke:none;fill-rule:nonzero;fill:rgb(74.117649%,74.117649%,74.117649%);fill-opacity:1;" d="M 2.644531 0.785156 L 2.644531 15.339844 L 13.890625 15.339844 C 14.441406 15.339844 14.882812 14.898438 14.882812 14.347656 L 14.882812 1.777344 C 14.882812 1.230469 14.441406 0.785156 13.890625 0.785156 Z M 4.300781 1.777344 L 13.230469 1.777344 C 13.597656 1.777344 13.890625 2.074219 13.890625 2.441406 L 13.890625 13.6875 C 13.890625 14.050781 13.597656 14.347656 13.230469 14.347656 L 4.300781 14.347656 C 3.933594 14.347656 3.636719 14.050781 3.636719 13.6875 L 3.636719 2.441406 C 3.636719 2.074219 3.933594 1.777344 4.300781 1.777344 Z M 4.300781 1.777344 "/>
<path style=" stroke:none;fill-rule:nonzero;fill:rgb(25.882354%,64.705884%,96.078432%);fill-opacity:1;" d="M 1.324219 0.785156 C 0.957031 0.785156 0.660156 1.082031 0.660156 1.449219 L 0.660156 14.679688 C 0.660156 15.046875 0.957031 15.339844 1.324219 15.339844 L 2.316406 15.339844 L 2.316406 0.785156 Z M 1.324219 0.785156 "/>
</g>
</svg>

<svg xmlns="http://www.w3.org/2000/svg" width="16pt" height="16pt" viewBox="0 0 16 16"><path d="M6.148 5.418h5.235a.51.51 0 0 1 .523.496.51.51 0 0 1-.523.496H6.148c-.293 0-.527-.223-.527-.496s.234-.496.527-.496zm0 0M6.148 8.063h5.235a.51.51 0 0 1 .523.496.51.51 0 0 1-.523.496H6.148c-.293 0-.527-.223-.527-.496 0-.274.234-.496.527-.496zm0 0" fill="#42a5f5"/><path d="M2.645.785V15.34H13.89c.55 0 .992-.442.992-.992V1.778a.991.991 0 0 0-.992-.993zm1.656.992h8.93a.66.66 0 0 1 .66.664v11.246a.66.66 0 0 1-.66.66H4.3a.663.663 0 0 1-.664-.66V2.441c0-.367.297-.664.664-.664zm0 0" fill="#bdbdbd"/><path d="M1.324.785a.664.664 0 0 0-.664.664v13.23c0 .368.297.66.664.66h.992V.786zm0 0" fill="#42a5f5"/></svg>
